svg/Outline/brush.svg

<svg viewBox="0 0 24 24" xmlns="http://www.w3.org/2000/svg" width="24" height="24"><path fill-rule="evenodd" d="M12.23 2.3c.48-1.26 2.2-1.74 3.22-.73l3.27 3.23c.62.62.84 1.54.54 2.37l-.36 1v.02l.02.02q.02.03.05.03l.07-.01a1.9 1.9 0 0 1 2.14.37l.37.35a2.5 2.5 0 0 1-.05 3.62l-5.62 5.3c.17.62 0 1.31-.51 1.8l-1.05.98a2.4 2.4 0 0 1-3.32-.04l-.6-.59c-.25-.25-.85-.25-1.17.18a7.4 7.4 0 0 1-2.76 2.42 3.3 3.3 0 0 1-1.9.25 3.5 3.5 0 0 1-1.88-1.03 3.4 3.4 0 0 1-1.03-1.87 3.2 3.2 0 0 1 .32-1.87 7.4 7.4 0 0 1 2.57-2.61q.3-.23.37-.55a.5.5 0 0 0-.15-.5l-.6-.58c-.92-.92-.9-2.4.04-3.29l1.05-.99a1.9 1.9 0 0 1 1.86-.42l2.32-2.2c1.24-1.17 2.2-3.09 2.8-4.66m-5.67 8.56-.07.03-1.05.98a.5.5 0 0 0 0 .72l.59.58c1.19 1.18.72 3.01-.5 3.81-.9.6-1.63 1.28-1.94 1.92q-.22.45-.16.8c.04.22.17.52.52.87.36.35.67.5.93.54q.39.06.88-.14c.68-.3 1.4-.99 2.04-1.84.86-1.15 2.7-1.53 3.86-.38l.6.59c.22.22.6.22.83 0l1.05-.98v-.04l-7.51-7.43zm7.5-8.03q-.14.04-.15.1c-.62 1.65-1.7 3.88-3.24 5.34l-2.12 2 6.23 6.16 5.5-5.17a.7.7 0 0 0 0-1.03l-.36-.36-.05-.03-.07.01c-1.43.67-3.17-.64-2.59-2.28l.36-1a.5.5 0 0 0-.11-.5L14.2 2.85q-.03-.04-.14-.02" clip-rule="evenodd"/></svg>

<svg viewBox="0 0 24 24" xmlns="http://www.w3.org/2000/svg" width="24" height="24"><path fill-rule="evenodd" d="M12.23 2.3C12.71 1.04 14.43 .56 15.45 1.57L18.72 4.8C19.34 5.42 19.56 6.34 19.26 7.17L18.92 8.21Q18.94 8.24 18.97 8.24L19.04 8.23A1.9 1.9 0 0 1 21.18 8.6L21.55 8.95A2.5 2.5 0 0 1 21.5 12.57L15.88 17.87C16.05 18.49 15.88 19.18 15.37 19.67L14.32 20.65A2.4 2.4 0 0 1 11 20.61L10.4 20.02C10.15 19.77 9.55 19.77 9.23 20.2A7.4 7.4 0 0 1 6.47 22.62A3.3 3.3 0 0 1 4.57 22.87A3.5 3.5 0 0 1 2.69 21.84A3.4 3.4 0 0 1 1.66 19.97A3.2 3.2 0 0 1 1.98 18.1A7.4 7.4 0 0 1 4.55 15.49Q4.85 15.26 4.92 14.94A.5 .5 0 0 0 4.77 14.44L4.17 13.86C3.25 12.94 3.27 11.46 4.21 10.57L5.26 9.58A1.9 1.9 0 0 1 7.12 9.16L9.44 6.96C10.68 5.79 11.64 3.87 12.24 2.3M6.57 10.86L6.5 10.89L5.45 11.87A.5 .5 0 0 0 5.45 12.59L6.04 13.17C7.23 14.35 6.76 16.18 5.54 16.98C4.64 17.58 3.91 18.26 3.6 18.9Q3.38 19.35 3.44 19.7C3.48 19.92 3.61 20.22 3.96 20.57C4.32 20.92 4.63 21.07 4.89 21.11Q5.28 21.17 5.77 20.97C6.45 20.67 7.17 19.98 7.81 19.13C8.67 17.98 10.51 17.6 11.67 18.75L12.27 19.34C12.49 19.56 12.87 19.56 13.1 19.34L14.15 18.32L6.64 10.89ZM14.07 2.83Q13.93 2.87 13.92 2.93C13.3 4.58 12.22 6.81 10.68 8.27L8.56 10.27L14.79 16.43L20.29 11.26A.7 .7 0 0 0 20.29 10.23L19.88 9.84L19.81 9.85C18.38 10.52 16.64 9.21 17.22 7.57L17.58 6.57A.5 .5 0 0 0 17.47 6.07L14.2 2.85Q14.17 2.81 14.06 2.83" clip-rule="evenodd"/></svg>
